public/images/type-icons/ghost.svg

<svg fill="none" height="512" viewBox="0 0 512 512" width="512" xmlns="http://www.w3.org/2000/svg"><path clip-rule="evenodd" d="m368.952 510.227c-46.183 2.364-99.056 2.364-117.024 0-140.158-18.439-251.928-120.914-251.928-259.427s114.615-250.8 256-250.8 256 112.287 256 250.8c0 64.421-24.793 123.169-65.54 167.587-11.065 12.061 4.117 20.521 19.542 29.117 15.128 8.431 30.49 16.992 21.562 29.208-9.838 13.461-63.172 30.677-118.612 33.515zm-148.952-290.777c0 21.642-17.909 39.187-40 39.187s-40-17.545-40-39.187c0-14.515 8.055-27.186 20.024-33.959.689 18.871 16.205 33.958 35.245 33.958h24.731zm123.976-33.959c-.689 18.871-16.205 33.958-35.245 33.958h-24.731v.001c0 21.642 17.909 39.187 40 39.187s40-17.545 40-39.187c0-14.515-8.055-27.186-20.024-33.959z" fill="#fff" fill-rule="evenodd"/></svg>

<svg width="512" height="512" viewBox="0 0 512 512" fill="none" xmlns="http://www.w3.org/2000/svg">
<path fill-rule="evenodd" clip-rule="evenodd" d="M368.952 510.227C322.769 512.591 269.896 512.591 251.928 510.227C111.77 491.788 0 389.313 0 250.8C0 112.287 114.615 0 256 0C397.385 0 512 112.287 512 250.8C512 315.221 487.207 373.969 446.46 418.387C435.395 430.448 450.577 438.908 466.002 447.504C481.13 455.935 496.492 464.496 487.564 476.712C477.726 490.173 424.392 507.389 368.952 510.227ZM220 219.45C220 241.092 202.091 258.637 180 258.637C157.909 258.637 140 241.092 140 219.45C140 204.935 148.055 192.264 160.024 185.491C160.713 204.362 176.229 219.449 195.269 219.449H220C220 219.449 220 219.45 220 219.45ZM343.976 185.491C343.287 204.362 327.771 219.449 308.731 219.449H284C284 219.449 284 219.45 284 219.45C284 241.092 301.909 258.637 324 258.637C346.091 258.637 364 241.092 364 219.45C364 204.935 355.945 192.264 343.976 185.491Z" fill="white"/>
</svg>
